images/ico_vk.svg

<svg width="32" height="32" viewBox="0 0 32 32" fill="none" xmlns="http://www.w3.org/2000/svg">
<path d="M0 12C0 5.37258 5.37258 0 12 0H20C26.6274 0 32 5.37258 32 12V20C32 26.6274 26.6274 32 20 32H12C5.37258 32 0 26.6274 0 20V12Z" fill="#0077FF"/>
<path d="M16.8931 22C10.0599 22 6.1624 17.8709 6 11H9.42285C9.53528 16.043 12.0586 18.1792 14.0574 18.6196V11H17.2805V15.3493C19.2542 15.1621 21.3277 13.1802 22.0273 11H25.2503C24.7132 13.6867 22.4646 15.6687 20.8656 16.4835C22.4646 17.1441 25.0256 18.8729 26 22H22.4521C21.6901 19.9079 19.7914 18.2893 17.2805 18.0691V22H16.8931Z" fill="white"/>
</svg>

<svg width="32" height="32" fill="none" xmlns="http://www.w3.org/2000/svg"><path d="M0 12C0 5.373 5.373 0 12 0h8c6.627 0 12 5.373 12 12v8c0 6.627-5.373 12-12 12h-8C5.373 32 0 26.627 0 20v-8z" fill="#07F"/><path d="M16.893 22C10.06 22 6.163 17.87 6 11h3.423c.112 5.043 2.636 7.18 4.634 7.62V11h3.223v4.35c1.974-.188 4.048-2.17 4.747-4.35h3.223c-.537 2.687-2.785 4.669-4.384 5.483 1.599.661 4.16 2.39 5.134 5.517h-3.548c-.762-2.092-2.66-3.71-5.172-3.93V22h-.387z" fill="#fff"/></svg>
